X: 56
M: C|
L: 1/16
K: Dm
f2 |\
a3df3a d3af3a | g3ce3g c3g e2fg |\
a3df3a d3af3a | g3a g2fe fd3 d2fg |
a3df3a d3af3a | g3ce3g c3g e2fg |\
a3fg3e f3de3^c | d2^cB AGFE AD3D2 H|]

